images/2023/logos/duolingo.svg

<svg viewBox="0 0 250 250" fill="none" xmlns="http://www.w3.org/2000/svg"><path fill-rule="evenodd" clip-rule="evenodd" d="M47.583 0H202.441C228.711 0 250 21.2891 250 47.583V202.441C250 228.711 228.711 250.024 202.417 250.024H47.583C21.2891 250 0 228.711 0 202.417V47.583C0 21.2891 21.2891 0 47.583 0Z" fill="#50C800"/><path fill-rule="evenodd" clip-rule="evenodd" d="M250.008 161.499V89.1846C247.176 82.2754 243.001 76.0498 237.826 70.8252C238.29 63.0615 236.556 55.2002 232.528 48.1934C229.891 43.6035 223.519 42.9443 219.955 46.8994L211.874 55.8594C211.825 55.835 211.776 55.835 211.727 55.8106C212.777 47.6318 211.385 39.1846 207.381 31.6406C204.891 26.9531 199.496 26.1231 195.785 29.9317L156.966 69.2627C156.527 69.6777 156.063 70.1172 155.624 70.5566C155.599 70.5811 155.55 70.6055 155.526 70.6299C138.656 85.9131 112.362 86.5479 96.2974 72.5098C95.2964 71.4111 94.2466 70.3613 93.1479 69.3359L54.2563 29.9561C50.5454 26.1475 45.1499 26.9776 42.6597 31.6651C38.6802 39.1846 37.2642 47.583 38.2896 55.7129C38.2163 55.7373 38.1431 55.7373 38.0698 55.7617L30.0864 46.8994C26.522 42.9443 20.1499 43.6035 17.4888 48.1934C13.5337 55.0537 11.8003 62.7441 12.1665 70.3613C7.06396 75.3906 2.91357 81.3965 -0.0161133 88.0615V162.646C8.74854 182.642 28.7192 196.631 51.937 196.631H54.4272C77.4497 196.631 97.2739 182.886 106.136 163.159C114.657 163.11 120.833 163.086 124.667 163.086C132.967 163.062 139.437 163.062 144.076 163.062C152.914 182.837 172.787 196.631 195.833 196.631H197.591C221.249 196.631 241.512 182.104 250.008 161.499Z" fill="#8EE000"/><path fill-rule="evenodd" clip-rule="evenodd" d="M55.4526 74.2185C77.23 74.2185 94.9058 91.8699 94.9058 113.672V137.036C94.9058 158.813 77.2544 176.489 55.4526 176.489C33.6753 176.489 15.9995 158.838 15.9995 137.036V113.672C15.9995 91.8699 33.6753 74.2185 55.4526 74.2185Z" fill="white"/><path fill-rule="evenodd" clip-rule="evenodd" d="M194.052 74.2185C215.829 74.2185 233.505 91.8699 233.505 113.672V137.036C233.505 158.813 215.853 176.489 194.052 176.489C172.274 176.489 154.598 158.838 154.598 137.036V113.672C154.598 91.8699 172.25 74.2185 194.052 74.2185Z" fill="white"/><path fill-rule="evenodd" clip-rule="evenodd" d="M61.5317 96.875C71.8589 96.875 80.2573 105.249 80.2573 115.601V135.596C80.2573 145.923 71.8833 154.321 61.5317 154.321C51.2046 154.321 42.8062 145.947 42.8062 135.596V115.601C42.8062 105.249 51.2046 96.875 61.5317 96.875Z" fill="#4B4B4B"/><path fill-rule="evenodd" clip-rule="evenodd" d="M125.01 142.266C136.85 142.266 146.445 151.861 146.445 163.701V171.148C146.445 182.989 136.85 192.583 125.01 192.583C113.169 192.583 103.574 182.989 103.574 171.148V163.701C103.574 151.861 113.169 142.266 125.01 142.266Z" fill="#F48000"/><path d="M95.4197 165.752C97.9832 152.081 110.654 142.217 125.815 142.217C139.609 142.217 152.085 152.325 154.599 165.752V166.851C154.599 167.706 154.306 168.047 153.525 167.95L125.84 172.881C125.083 172.881 124.985 172.881 124.204 172.881L96.4939 167.925C95.7126 168.023 95.4197 167.681 95.4197 166.827V165.752Z" fill="#FFC200"/><path fill-rule="evenodd" clip-rule="evenodd" d="M120.468 146.953C121.909 146.612 123.398 146.416 124.887 146.416C126.474 146.416 128.086 146.612 129.673 147.027C132.895 147.857 135.141 150.762 135.141 154.082C135.141 156.768 132.968 158.916 130.307 158.916H119.712C117.026 158.916 114.878 156.743 114.878 154.082C114.853 150.713 117.173 147.759 120.468 146.953Z" fill="#FFE747"/><path fill-rule="evenodd" clip-rule="evenodd" d="M187.972 96.875C198.3 96.875 206.698 105.249 206.698 115.601V135.596C206.698 145.923 198.324 154.321 187.972 154.321C177.645 154.321 169.247 145.947 169.247 135.596V115.601C169.271 105.249 177.645 96.875 187.972 96.875Z" fill="#4B4B4B"/><path d="M45.7114 119.58C52.3858 119.58 57.7964 114.191 57.7964 107.544C57.7964 100.897 52.3858 95.5078 45.7114 95.5078C39.0371 95.5078 33.6265 100.897 33.6265 107.544C33.6265 114.191 39.0371 119.58 45.7114 119.58Z" fill="white"/><path d="M170.321 119.58C176.995 119.58 182.406 114.191 182.406 107.544C182.406 100.897 176.995 95.5078 170.321 95.5078C163.646 95.5078 158.236 100.897 158.236 107.544C158.236 114.191 163.646 119.58 170.321 119.58Z" fill="white"/></svg>

<svg xmlns="http://www.w3.org/2000/svg" fill="none" viewBox="0 0 250 250"><path fill="#50c800" fill-rule="evenodd" d="M47.583 0h154.858C228.711 0 250 21.29 250 47.583v154.858c0 26.27-21.289 47.583-47.583 47.583H47.583C21.289 250 0 228.711 0 202.417V47.583C0 21.289 21.29 0 47.583 0" clip-rule="evenodd"/><path fill="#8ee000" fill-rule="evenodd" d="M250.008 161.499V89.185a56.7 56.7 0 0 0-12.182-18.36c.464-7.764-1.27-15.625-5.298-22.632-2.637-4.59-9.009-5.249-12.573-1.294l-8.081 8.96c-.049-.024-.098-.024-.147-.048 1.05-8.18-.342-16.626-4.346-24.17-2.49-4.688-7.885-5.518-11.596-1.71l-38.819 39.332c-.439.415-.903.854-1.342 1.294-.025.024-.074.049-.098.073-16.87 15.283-43.164 15.918-59.229 1.88a55 55 0 0 0-3.15-3.174l-38.89-39.38c-3.712-3.808-9.107-2.978-11.597 1.71-3.98 7.519-5.396 15.917-4.37 24.047-.074.024-.147.024-.22.049l-7.984-8.863c-3.564-3.955-9.936-3.296-12.597 1.294-3.955 6.86-5.689 14.551-5.323 22.168a57.2 57.2 0 0 0-12.182 17.7v74.585c8.765 19.996 28.735 33.985 51.953 33.985h2.49c23.023 0 42.847-13.745 51.709-33.472q12.78-.073 18.531-.073c8.3-.024 14.77-.024 19.409-.024 8.838 19.775 28.711 33.569 51.757 33.569h1.758c23.658 0 43.921-14.527 52.417-35.132" clip-rule="evenodd"/><path fill="#fff" fill-rule="evenodd" d="M55.453 74.219c21.777 0 39.453 17.65 39.453 39.453v23.364c0 21.777-17.652 39.453-39.453 39.453-21.778 0-39.454-17.651-39.454-39.453v-23.364c0-21.802 17.676-39.453 39.454-39.453m138.599 0c21.777 0 39.453 17.65 39.453 39.453v23.364c0 21.777-17.652 39.453-39.453 39.453-21.778 0-39.454-17.651-39.454-39.453v-23.364c0-21.802 17.652-39.453 39.454-39.453" clip-rule="evenodd"/><path fill="#4b4b4b" fill-rule="evenodd" d="M61.532 96.875c10.327 0 18.725 8.374 18.725 18.726v19.995c0 10.327-8.374 18.725-18.725 18.725-10.327 0-18.726-8.374-18.726-18.725v-19.995c0-10.352 8.399-18.726 18.726-18.726" clip-rule="evenodd"/><path fill="#f48000" fill-rule="evenodd" d="M125.01 142.266c11.84 0 21.435 9.595 21.435 21.435v7.447c0 11.841-9.595 21.435-21.435 21.435-11.841 0-21.436-9.594-21.436-21.435v-7.447c0-11.84 9.595-21.435 21.436-21.435" clip-rule="evenodd"/><path fill="#ffc200" d="M95.42 165.752c2.563-13.671 15.234-23.535 30.395-23.535 13.794 0 26.27 10.108 28.784 23.535v1.099c0 .855-.293 1.196-1.074 1.099l-27.685 4.931h-1.636l-27.71-4.956c-.781.098-1.074-.244-1.074-1.098z"/><path fill="#ffe747" fill-rule="evenodd" d="M120.468 146.953a19.3 19.3 0 0 1 4.419-.537c1.587 0 3.199.196 4.786.611a7.285 7.285 0 0 1 5.468 7.055 4.83 4.83 0 0 1-4.834 4.834h-10.595a4.83 4.83 0 0 1-4.834-4.834c-.025-3.369 2.295-6.323 5.59-7.129" clip-rule="evenodd"/><path fill="#4b4b4b" fill-rule="evenodd" d="M187.972 96.875c10.328 0 18.726 8.374 18.726 18.726v19.995c0 10.327-8.374 18.725-18.726 18.725-10.327 0-18.725-8.374-18.725-18.725v-19.995c.024-10.352 8.398-18.726 18.725-18.726" clip-rule="evenodd"/><path fill="#fff" d="M45.711 119.58c6.675 0 12.085-5.389 12.085-12.036s-5.41-12.036-12.085-12.036c-6.674 0-12.084 5.389-12.084 12.036s5.41 12.036 12.084 12.036m124.61 0c6.674 0 12.085-5.389 12.085-12.036s-5.411-12.036-12.085-12.036-12.085 5.389-12.085 12.036 5.41 12.036 12.085 12.036"/></svg>
